!!!!SEGMENT: pl-lzu--m-15111--001-025_noskowski-zygmunt--spiewnik-dla-dzieci-op-34-25-kosiarze.krn
!!!cenid: 18xx:4722
!!!COM: Noskowski, Zygmunt
!!!COM-rismID: pe106604
!!!CDT: 1846/05/02-1909/07/23
!!!CNT: Polish
!!!GTL: Śpiewnik dla dzieci, op. 34
!!!OTL: 25. Kosiarze
!!!OMV: 025
!!!PDT: 1890
!!!AGN: Secular; Song; Children
!!!YEC: Copyright 2022 Narodowy Instytut Fryderyka Chopina (https://polishscores.org)
!!!YEM: License CC-BY-4.0 (https://creativecommons.org/licenses/by/4.0)
!!!SMS-siglum: PL-LŹu
!!!SMS-shelfmark: M 15111
!!!SMS-variant:
!!!SMS-altvar:
!!!SMS-shelfwork: 001-025 G
!!!NIFC-rismSourceID: 1001234040
!!!NIFC-rismChildID: 1001234040
!!!NIFC-islandoraID: pl-lzu:5455
!!!URL-pdf-islandora: https://repozytorium.nifc.pl/islandora/object/pl-lzu%3A5455/datastream/PDF/view
!!!URL-scan: https://polish.musicsources.pl/pl/lokalizacje/galeria/druki-muzyczne/23228/33 @EN{Scan on Polish Music Sources Website} @PL{Skany w portalu Dziedzictwo Muzyki Polskiej w otwartym dostępie}
!!!IIIF:
!!!ONB-nifc:
!!!AIN: 1 piano 1 vox
!!!key: F
!!!OMD: Allegro energico.
**kern	**kern	**dynam	**kern	**text	**text	**dynam
*part2	*part2	*part2	*part1	*part1	*part1	*part1
*staff3	*staff2	*staff2/3	*staff1	*staff1	*staff1	*staff1
*I"[Piano]	*I"[Piano]	*	*I"[Voice]	*	*	*
*I'pf	*I'pf	*	*I'V	*	*	*
*Ipiano	*Ipiano	*	*Ivox	*	*	*
*ICklav	*ICklav	*	*ICvox	*	*	*
*IGacmp	*IGacmp	*	*IGsolo	*	*	*
*>[A,B,B,C]	*>[A,B,B,C]	*>[A,B,B,C]	*>[A,B,B,C]	*>[A,B,B,C]	*>[A,B,B,C]	*>[A,B,B,C]
*>A	*>A	*>A	*>A	*>A	*>A	*>A
*clefF4	*clefG2	*	*clefG2	*	*	*
*k[b-]	*k[b-]	*	*k[b-]	*	*	*
*F:	*F:	*	*F:	*	*	*
*M2/4	*M2/4	*	*M2/4	*	*	*
=1	=1	=1	=1	=1	=1	=1
!	!LO:TX:a:i:t=Żwawo z energią.	!LO:DY:rj	!	!	!	!
8cL 8A 8F^\	(16e^/LL	f	2r	.	.	.
.	16f/	.	.	.	.	.
8c 8A 8F\	16bn/	.	.	.	.	.
.	16cc/JJ	.	.	.	.	.
8c 8A 8F\	16e/LL	.	.	.	.	.
.	16f/	.	.	.	.	.
8cJ 8A 8F\	16b/	.	.	.	.	.
.	16cc/JJ	.	.	.	.	.
=2	=2	=2	=2	=2	=2	=2
8cL 8A 8F\	16e/LL	.	2r	.	.	.
.	16f/	.	.	.	.	.
8c 8A 8F\	16bn/	.	.	.	.	.
.	16cc/JJ)	.	.	.	.	.
8c 8A 8F\	8f^/L	.	.	.	.	.
8cJ 8A 8F\	8f^/J	.	.	.	.	.
=3	=3	=3	=3	=3	=3	=3
8cL 8B- 8F\	(16g/LL	.	2r	.	.	.
.	16a/	.	.	.	.	.
8c 8B- 8F\	16b-/	.	.	.	.	.
.	16a/JJ	.	.	.	.	.
8c 8B- 8F\	16g/LL	.	.	.	.	.
.	16a/	.	.	.	.	.
8B-J 8F\	16g/	.	.	.	.	.
.	16c/JJ)	.	.	.	.	.
=4!|:	=4!|:	=4!|:	=4!|:	=4!|:	=4!|:	=4!|:
*>B	*>B	*>B	*>B	*>B	*>B	*>B
8AL 8F\	8f/	.	2r	.	.	.
8cJ 8A 8F\	4a^/	.	.	.	.	.
8cL 8A 8F\	.	.	.	.	.	.
8cJ 8A 8F\	(16f/LL	.	.	.	.	.
.	16a/JJ)	.	.	.	.	.
!!LO:LB:g=original
=5	=5	=5	=5	=5	=5	=5
*	*	*	*	*v:1	*v:2	*
!	!LO:TX:b:i:t=risoluto	!	!LO:TX:a:i:t=risoluto	!	!	!LO:DY:rj
8cL 8A 8F\	4cc 4f^>/	.	4cc\	Brzę-	Pot	f
8c 8A 8F\	.	.	.	.	.	.
8c 8A 8F\	4a 4f^>/	.	4a/	-czą	o-	.
8cJ 8A 8F\	.	.	.	.	.	.
=6	=6	=6	=6	=6	=6	=6
8cL 8A 8F\	8ccL 8f/	.	8cc\	ko-	-trze-	.
8c 8A 8F\	8a 8f/	.	8a/	-sy	-my	.
8c 8A 8F\	8dd 8f/	.	8dd\	w łą-	z czo-	.
8cJ 8A 8F\	8ccJ 8f/	.	8cc\	-ce,	-ła,	.
=7	=7	=7	=7	=7	=7	=7
8cL 8A 8F\	8f/L	.	8f/	Brzę-	A	.
8c 8A 8F\	8a 8f/	.	8a/	-czą,	zaś	.
8c 8B- 8F\	8b- 8e/	.	8b-/	po-	z ko-	.
8cJ 8B- 8F\	8gJ 8e/	.	8g/	-brzę-	-sy	.
=8	=8	=8	=8	=8	=8	=8
8cL 8A 8F\	8a 8f/	.	8a/	-ku-	tra-	.
8c 8A 8F\	4f/	.	4f/	-ją,	-wę,	.
8c 8A 8F\	.	.	.	.	.	.
8cJ 8A 8F\	8r	.	8r	.	.	.
!!LO:PB:g=original
=9	=9	=9	=9	=9	=9	=9
*	*	*	*	*v:1	*v:2	*
8cL 8A 8F\	8a 8f/	.	8a/	Ko-	Za-	.
8c 8A 8F\	4cc 4f/	.	4cc^\	-sia-	-sią-	.
8c 8A 8F\	.	.	.	.	.	.
8cJ 8A 8F\	8a 8f/	.	8a/	-rze	-dziem	.
=10	=10	=10	=10	=10	=10	=10
8cL 8A 8F\	8ccL 8f/	.	(8cc\L	się	pod	.
8c 8A 8F\	8a 8f/	.	8a\J)	.	.	.
8c 8A 8F\	8dd 8f/	.	8dd\	spie-	gru-	.
8cJ 8A 8F\	8ccJ 8f/	.	8cc\	-szą,	-szą	.
=11	=11	=11	=11	=11	=11	=11
8cL 8A 8F\	8f/L	.	8f/	Bo	Cie-	.
8c 8A 8F\	8a 8f/	.	8a/	po-	-ni-	.
8c 8B- 8F\	8b- 8e/	.	8b-/	-łu-	-stą	.
8cJ 8B- 8F\	8gJ 8e/	.	8g/	-dnie	mu-	.
!!LO:LB:g=original
=12	=12	=12	=12	=12	=12	=12
*	*	*	*	*v:1	*v:2	*
8cL 8A 8F\	8a 8f/	.	8a/	czu-	-ra-	.
8c 8A 8F\	4f^/	.	4f/	-ją.	-wę.	.
8c 8A 8F\	.	.	.	.	.	.
8cJ 8A 8F\	8r	.	8r	.	.	.
=13	=13	=13	=13	=13	=13	=13
8cL 8G 8C\	8gL 8e/	.	8g/	U-	A	.
8c 8G 8C\	8ccJ 8e/	.	8cc\	-wi-	tu	.
8c 8G 8C\	8.gL 8.e/	.	8.g/	-jaj	słon-	.
8cJ 8G 8C\	.	.	.	.	.	.
.	16aJk 16e/	.	16a/	się	-ko	.
=14	=14	=14	=14	=14	=14	=14
8BnL 8G 8C\	4bn 4f/	.	4bn/	ra-	pa-	.
8B 8G 8C\	.	.	.	.	.	.
8B 8G 8C\	8g 8f/	.	8g/	-źno,	-trzy	.
8BJ 8G 8C\	8r	.	8r	.	.	.
=15	=15	=15	=15	=15	=15	=15
8BnL 8G 8C\	8.aL 8.f/	.	8.a/	O-	Na	.
8BJ 8G 8C\	.	.	.	.	.	.
.	16bnJk 16f/	<	16b-/	-stra	na-	<
8BL 8G 8C\	8ccL 8f/	.	8cc\	mo-	-szą	.
8BJ 8G 8C\	8ddJ 8f/	[	8dd\	-ja	ro-	[
!!LO:LB:g=original
=16	=16	=16	=16	=16	=16	=16
*	*	*	*	*v:1	*v:2	*
8cL 8G 8C\	4ee 4e/	.	4ee\	ko-	-bo-	.
8c 8G 8C\	.	.	.	.	.	.
8c 8G 8C\	8cc 8e/	.	8cc\	-so,	-tę	.
8cJ 8G 8C\	8r	.	8r	.	.	.
=17	=17	=17	=17	=17	=17	=17
8cL 8B-X 8C\	8gL 8e/	p	8g/	Nim	I	.
8cJ 8B- 8C\	8aJ 8e/	.	8a/	wy-	o-	.
8cL 8B- 8C\	8b-L 8e/	.	8b-/	-sie-	-twie-	.
8cJ 8B- 8C\	(16aL 16e/	.	(16a/LL	-czem	-ra	.
.	16g/JJ)	.	16g/JJ)	.	.	.
=18	=18	=18	=18	=18	=18	=18
8cL 8A 8C\	4dd 4f/	.	4dd\	po	z dzi-	.
8c 8A 8C\	.	.	.	.	.	.
8c 8A 8C\	8cc 8f/	.	8cc\	las,	-wu	.
8cJ 8A 8C\	8r	.	8r	.	.	.
=19	=19	=19	=19	=19	=19	=19
4c 4G 4C^\	4b- 4e^/	f	4b-^>/	O-	Swo-	.
4c 4B- 4C^\	4g 4e^/	.	4g^>/	-biad	-je	.
!!LO:PB:g=original
=20	=20	=20	=20	=20	=20	=20
*	*	*	*	*v:1	*v:2	*
8.cL 8.A 8.F\	8.f/L	.	8.f/	nam	o-	.
.	.	>	.	.	.	.
16cJk 16A 16F\	16g/Jk	.	16g/	przy-	-czy	.
8cL 8A 8F\	8a/L	.	8a/	-nio-	zło-	.
8cJ 8A 8F\	8f/J	]	8f,/	-są.	-te.	.
=21	=21	=21	=21	=21	=21	=21
!	!	!LO:DY:rj	!	!	!	!
8cL 8B- 8C\	8gL 8e/	p	8g/	Nim	I	.
8cJ 8B- 8C\	8aJ 8e/	.	8a/	wy-	o-	.
8cL 8B- 8C\	8b-L 8e/	.	8b-/	-sie-	-twie-	.
8cJ 8B-\	(16aL 16e/	.	(16a/LL	-czem	-ra	.
.	16g/JJ)	.	16g/JJ)	.	.	.
=22	=22	=22	=22	=22	=22	=22
4c 4A^\	4cc 4f^/	<	4cc\	po	z dzi-	.
4c 4A-X^\	4dd 4f^/	.	4dd,\	las,	-wu	.
=23	=23	=23	=23	=23	=23	=23
8cL 8B- 8G\	8eeL 8b- 8e\	.	8ee\	O-	Swo-	.
8cJ 8B- 8G\	8ddJ 8b- 8e\	.	8dd\	-biad	-je	.
8cL 8G 8C\	8eeL 8b- 8e\	.	8ee\	nam	o-	.
8cJ 8G 8C\	8ccJ 8b- 8e\	.	8cc\	przy	-czy	.
!!LO:LB:g=original
=24	=24	=24	=24	=24	=24	=24
*	*	*	*	*v:1	*v:2	*
!	!	!LO:DY:rj	!	!	!	!
8cL 8A 8F\	4ff 4a 4f/	f	2ff\	nio-	zło-	.
8c 8A 8F\	.	.	.	.	.	.
8c 8A 8F\	(16e^/LL	.	.	.	.	.
.	16f/	.	.	.	.	.
8cJ 8A 8F\	16bn/	.	.	.	.	.
.	16cc/JJ	.	.	.	.	.
=25	=25	=25	=25	=25	=25	=25
8cL 8A 8F\	16e/LL	.	4f/	-są.	-te.	.
.	16f/	.	.	.	.	.
8c 8A 8F\	16bn/	.	.	.	.	.
.	16cc/JJ)	.	.	.	.	.
8c 8A 8F\	8f^/L	.	4r	.	.	.
8cJ 8A 8F\	8f^/J	.	.	.	.	.
=26	=26	=26	=26	=26	=26	=26
8cL 8B- 8F\	(16g/LL	.	2r	.	.	.
.	16a/	.	.	.	.	.
8c 8B- 8F\	16b-/	.	.	.	.	.
.	16a/JJ	.	.	.	.	.
8c 8B- 8F\	16g/LL	.	.	.	.	.
.	16a/	.	.	.	.	.
8B-J 8F\	16g/	.	.	.	.	.
.	16c/JJ)	.	.	.	.	.
=27:|!	=27:|!	=27:|!	=27:|!	=27:|!	=27:|!	=27:|!
*>C	*>C	*>C	*>C	*>C	*>C	*>C
8AL 8F\	8f/L	.	2r	.	.	.
8AJ 8F^\	8fJ 8c^/	.	.	.	.	.
8A 8F^\	8f 8c^/	.	.	.	.	.
8r	8r	.	.	.	.	.
==	==	==	==	==	==	==
*-	*-	*-	*-	*-	*-	*-
!!!system-decoration: p1{p2}
!!!RDF**kern: > = above
!!!RDF**kern: < = below
!!!ENC: Andrzej Gręziak
!!!END: 2025-03-05
!!!ENC: Marta Lawrence
!!!END: 2025-03-21
